svg/monochrome/left-indent.svg

<svg xmlns="http://www.w3.org/2000/svg" viewBox="0 0 24 24"><path class="uim-tertiary" d="M21 7H3A1 1 0 0 1 3 5H21a1 1 0 0 1 0 2zM13 11H3A1 1 0 0 1 3 9H13a1 1 0 0 1 0 2zM21 19H3a1 1 0 0 1 0-2H21a1 1 0 0 1 0 2zM13 15H3a1 1 0 0 1 0-2H13a1 1 0 0 1 0 2z"/><path class="uim-primary" d="M21,14.6665a.99869.99869,0,0,1-.64014-.23193l-2-1.6665a.9996.9996,0,0,1,0-1.53614l2-1.6665A.9997.9997,0,0,1,22,10.3335v3.333a.99929.99929,0,0,1-1,1Z"/></svg>

<svg xmlns="http://www.w3.org/2000/svg" viewBox="0 0 24 24"><path class="uim-tertiary" d="M21 7H3a1 1 0 0 1 0-2h18a1 1 0 0 1 0 2zm-8 4H3a1 1 0 0 1 0-2h10a1 1 0 0 1 0 2zm8 8H3a1 1 0 0 1 0-2h18a1 1 0 0 1 0 2zm-8-4H3a1 1 0 0 1 0-2h10a1 1 0 0 1 0 2z"/><path class="uim-primary" d="M21 14.666a.999.999 0 0 1-.64-.231l-2-1.667a1 1 0 0 1 0-1.536l2-1.667a1 1 0 0 1 1.64.769v3.333a1 1 0 0 1-1 1Z"/></svg>
